; generated by Slic3r 1.3.0 on 2022-02-23 at 21:40:24

; external perimeters extrusion width = 0.44mm (3.38mm^3/s)
; perimeters extrusion width = 0.48mm (7.54mm^3/s)
; infill extrusion width = 0.48mm (10.05mm^3/s)
; solid infill extrusion width = 0.48mm (2.51mm^3/s)
; top infill extrusion width = 0.48mm (1.88mm^3/s)
; support material extrusion width = 0.44mm (6.76mm^3/s)

M107
M190 S65 ; set bed temperature and wait for it to be reached
M104 S205 ; set temperature
G28 ; home all axes
G1 Z5 F5000 ; lift nozzle

; Filament gcode

M109 S205 ; set temperature and wait for it to be reached
G21 ; set units to millimeters
G90 ; use absolute coordinates
M82 ; use absolute distances for extrusion
G92 E0
G1 Z0.400 F7800.000
G1 E-2.00000 F2400.00000
G92 E0
G1 X77.827 Y80.720 F7800.000
G1 E2.00000 F2400.00000
G1 F1800
G1 X79.583 Y79.220 E2.27422
G1 X81.743 Y78.405 E2.54845
G1 X83.000 Y78.286 E2.69842
G1 X137.000 Y78.286 E9.11174
G1 X139.275 Y78.683 E9.38596
G1 X141.280 Y79.827 E9.66019
G1 X142.780 Y81.583 E9.93441
G1 X143.595 Y83.743 E10.20864
G1 X143.714 Y85.000 E10.35860
G1 X143.714 Y90.000 E10.95243
G1 X143.697 Y90.532 E11.01560
G1 X143.488 Y93.896 E11.41590
G1 X143.404 Y94.482 E11.48626
G1 X142.865 Y97.465 E11.84625
G1 X142.747 Y98.018 E11.91338
G1 X142.649 Y98.371 E11.95692
G1 X141.609 Y101.727 E12.37416
G1 X141.391 Y102.266 E12.44325
G1 X140.063 Y105.252 E12.83140
G1 X125.352 Y135.469 E16.82273
G1 X125.038 Y136.036 E16.89977
G1 X124.656 Y136.588 E16.97953
G1 X123.726 Y137.795 E17.16046
G1 X122.795 Y138.726 E17.31680
G1 X121.588 Y139.656 E17.49777
G1 X121.037 Y140.037 E17.57732
G1 X120.464 Y140.355 E17.65515
G1 X118.866 Y141.032 E17.86132
G1 X118.449 Y141.189 E17.91417
G1 X117.813 Y141.370 E17.99278
G1 X117.169 Y141.487 E18.07044
G1 X115.663 Y141.681 E18.25078
G1 X115.000 Y141.714 E18.32966
G1 X105.000 Y141.714 E19.51731
G1 X104.120 Y141.656 E19.62205
G1 X102.831 Y141.487 E19.77649
G1 X102.189 Y141.370 E19.85401
G1 X101.553 Y141.189 E19.93248
G1 X99.933 Y140.534 E20.14004
G1 X99.531 Y140.352 E20.19237
G1 X98.960 Y140.035 E20.26995
G1 X98.412 Y139.656 E20.34916
G1 X97.205 Y138.726 E20.53007
G1 X96.274 Y137.795 E20.68644
G1 X95.344 Y136.588 E20.86741
G1 X94.967 Y136.044 E20.94606
G1 X94.649 Y135.471 E21.02391
G1 X79.937 Y105.253 E25.01552
G1 X78.609 Y102.266 E25.40368
G1 X78.399 Y101.748 E25.47006
G1 X78.280 Y101.395 E25.51429
G1 X77.253 Y98.018 E25.93352
G1 X77.135 Y97.465 E26.00068
G1 X76.596 Y94.482 E26.36068
G1 X76.484 Y93.557 E26.47131
G1 X76.292 Y90.287 E26.86036
G1 X76.286 Y85.000 E27.48830
G1 X76.683 Y82.725 E27.76252
G1 X77.797 Y80.772 E28.02962
G1 E26.02962 F2400.00000
G92 E0
G1 X116.273 Y126.330 F7800.000
G1 E2.00000 F2400.00000
G1 F1800
G1 X115.055 Y127.705 E2.21824
G1 X113.542 Y128.749 E2.43647
G1 X111.824 Y129.401 E2.65471
G1 X110.000 Y129.622 E2.87295
G1 X108.176 Y129.401 E3.09118
G1 X106.458 Y128.749 E3.30942
G1 X104.945 Y127.705 E3.52765
G1 X103.727 Y126.330 E3.74589
G1 X102.873 Y124.703 E3.96413
G1 X102.433 Y122.919 E4.18236
G1 X102.433 Y121.081 E4.40060
G1 X102.873 Y119.297 E4.61883
G1 X103.727 Y117.670 E4.83707
G1 X104.945 Y116.295 E5.05531
G1 X106.458 Y115.251 E5.27354
G1 X108.176 Y114.599 E5.49178
G1 X110.000 Y114.378 E5.71001
G1 X111.824 Y114.599 E5.92825
G1 X113.542 Y115.251 E6.14649
G1 X115.055 Y116.295 E6.36472
G1 X116.273 Y117.670 E6.58296
G1 X117.127 Y119.297 E6.80120
G1 X117.567 Y121.082 E7.01952
G1 X117.567 Y122.918 E7.23759
G1 X117.127 Y124.703 E7.45591
G1 X116.301 Y126.277 E7.66702
G1 X115.681 Y125.921 F7800.000
G1 F1800
G1 X114.577 Y127.167 E7.86466
G1 X113.208 Y128.112 E8.06230
G1 X111.652 Y128.702 E8.25994
G1 X110.000 Y128.903 E8.45758
G1 X108.348 Y128.702 E8.65521
G1 X106.792 Y128.112 E8.85285
G1 X105.423 Y127.167 E9.05049
G1 X104.319 Y125.921 E9.24813
G1 X103.546 Y124.448 E9.44577
G1 X103.147 Y122.832 E9.64341
G1 X103.147 Y121.168 E9.84105
G1 X103.546 Y119.552 E10.03869
G1 X104.319 Y118.079 E10.23632
G1 X105.423 Y116.833 E10.43396
G1 X106.792 Y115.888 E10.63160
G1 X108.348 Y115.298 E10.82924
G1 X110.000 Y115.097 E11.02688
G1 X111.652 Y115.298 E11.22452
G1 X113.208 Y115.888 E11.42216
G1 X114.577 Y116.833 E11.61980
G1 X115.681 Y118.079 E11.81743
G1 X116.454 Y119.552 E12.01507
G1 X116.853 Y121.169 E12.21280
G1 X116.853 Y122.831 E12.41027
G1 X116.454 Y124.448 E12.60799
G1 X115.709 Y125.868 E12.79851
G1 X115.681 Y125.921 F7800.000
G1 E10.79851 F2400.00000
G92 E0
G1 X117.846 Y124.870 F7800.000
G1 E2.00000 F2400.00000
G1 F1800
G1 X118.172 Y124.951 E2.03987
G1 X118.172 Y129.880 E2.62529
G1 X118.048 Y130.819 E2.73776
G1 X117.733 Y131.578 E2.83537
G1 X117.234 Y132.229 E2.93282
G1 X116.576 Y132.734 E3.03136
G1 X115.817 Y133.048 E3.12888
G1 X114.880 Y133.172 E3.24109
G1 X105.116 Y133.171 E4.40070
G1 X104.183 Y133.048 E4.51249
G1 X103.424 Y132.734 E4.61010
G1 X102.771 Y132.233 E4.70781
G1 X102.266 Y131.576 E4.80630
G1 X101.952 Y130.817 E4.90383
G1 X101.828 Y129.880 E5.01604
G1 X101.828 Y124.951 E5.60150
G1 X102.154 Y124.870 E5.64137
G1 X103.135 Y126.739 E5.89198
G1 X104.468 Y128.244 E6.13081
G1 X106.123 Y129.386 E6.36965
G1 X108.004 Y130.099 E6.60848
G1 X110.000 Y130.342 E6.84731
G1 X111.996 Y130.099 E7.08615
G1 X113.877 Y129.386 E7.32498
G1 X115.532 Y128.244 E7.56381
G1 X116.865 Y126.739 E7.80265
G1 X117.818 Y124.923 E8.04613
G1 E6.04613 F2400.00000
G92 E0
G1 X126.330 Y99.791 F7800.000
G1 E2.00000 F2400.00000
G1 F1800
G1 X124.914 Y98.845 E2.20223
G1 X123.968 Y97.430 E2.40447
G1 X123.636 Y95.760 E2.60670
G1 X123.968 Y94.089 E2.80893
G1 X124.914 Y92.674 E3.01117
G1 X126.330 Y91.728 E3.21340
G1 X128.000 Y91.395 E3.41564
G1 X129.670 Y91.728 E3.61787
G1 X131.086 Y92.674 E3.82010
G1 X132.032 Y94.089 E4.02233
G1 X132.364 Y95.760 E4.22457
G1 X132.032 Y97.430 E4.42680
G1 X131.086 Y98.845 E4.62904
G1 X129.670 Y99.791 E4.83127
G1 X128.000 Y100.124 E5.03350
G1 X126.389 Y99.803 E5.22861
G1 X126.609 Y99.119 F7800.000
G1 F1800
G1 X125.429 Y98.331 E5.39710
G1 X124.641 Y97.151 E5.56559
G1 X124.364 Y95.760 E5.73408
G1 X124.641 Y94.368 E5.90258
G1 X125.429 Y93.189 E6.07107
G1 X126.609 Y92.400 E6.23956
G1 X128.000 Y92.124 E6.40805
G1 X129.391 Y92.400 E6.57654
G1 X130.571 Y93.188 E6.74503
G1 X131.359 Y94.368 E6.91352
G1 X131.636 Y95.760 E7.08201
G1 X131.359 Y97.151 E7.25050
G1 X130.571 Y98.331 E7.41900
G1 X129.391 Y99.119 E7.58749
G1 X128.000 Y99.396 E7.75598
G1 X126.667 Y99.130 E7.91734
G1 X126.887 Y98.446 F7800.000
G1 F1800
G1 X125.944 Y97.816 E8.05209
G1 X125.314 Y96.872 E8.18684
G1 X125.092 Y95.760 E8.32159
G1 X125.314 Y94.647 E8.45634
G1 X125.944 Y93.703 E8.59109
G1 X126.887 Y93.073 E8.72584
G1 X128.000 Y92.852 E8.86059
G1 X129.113 Y93.073 E8.99533
G1 X130.056 Y93.703 E9.13008
G1 X130.686 Y94.647 E9.26483
G1 X130.908 Y95.760 E9.39958
G1 X130.686 Y96.872 E9.53433
G1 X130.056 Y97.816 E9.66908
G1 X129.113 Y98.446 E9.80383
G1 X128.000 Y98.667 E9.93858
G1 X126.946 Y98.458 E10.06620
G1 X126.887 Y98.446 F7800.000
G1 E8.06620 F2400.00000
G92 E0
G1 X96.364 Y95.760 F7800.000
G1 E2.00000 F2400.00000
G1 F1800
G1 X96.032 Y97.430 E2.20223
G1 X95.086 Y98.845 E2.40447
G1 X93.670 Y99.791 E2.60670
G1 X92.000 Y100.124 E2.80893
G1 X90.330 Y99.791 E3.01117
G1 X88.914 Y98.845 E3.21340
G1 X87.968 Y97.430 E3.41564
G1 X87.636 Y95.760 E3.61787
G1 X87.968 Y94.089 E3.82010
G1 X88.914 Y92.674 E4.02234
G1 X90.330 Y91.728 E4.22457
G1 X92.000 Y91.395 E4.42681
G1 X93.670 Y91.728 E4.62904
G1 X95.086 Y92.674 E4.83127
G1 X96.032 Y94.089 E5.03350
G1 X96.352 Y95.701 E5.22861
G1 X95.636 Y95.760 F7800.000
G1 F1800
G1 X95.359 Y97.151 E5.39710
G1 X94.571 Y98.331 E5.56559
G1 X93.391 Y99.119 E5.73408
G1 X92.000 Y99.396 E5.90258
G1 X90.609 Y99.119 E6.07107
G1 X89.429 Y98.331 E6.23956
G1 X88.641 Y97.151 E6.40805
G1 X88.364 Y95.760 E6.57654
G1 X88.641 Y94.368 E6.74503
G1 X89.429 Y93.189 E6.91352
G1 X90.609 Y92.400 E7.08201
G1 X92.000 Y92.124 E7.25051
G1 X93.391 Y92.400 E7.41900
G1 X94.571 Y93.189 E7.58749
G1 X95.359 Y94.368 E7.75598
G1 X95.624 Y95.701 E7.91734
G1 X94.908 Y95.760 F7800.000
G1 F1800
G1 X94.686 Y96.872 E8.05209
G1 X94.056 Y97.816 E8.18684
G1 X93.113 Y98.446 E8.32159
G1 X92.000 Y98.667 E8.45634
G1 X90.887 Y98.446 E8.59109
G1 X89.944 Y97.816 E8.72584
G1 X89.314 Y96.872 E8.86059
G1 X89.092 Y95.760 E8.99533
G1 X89.314 Y94.647 E9.13008
G1 X89.944 Y93.703 E9.26483
G1 X90.887 Y93.073 E9.39958
G1 X92.000 Y92.852 E9.53433
G1 X93.113 Y93.073 E9.66908
G1 X94.056 Y93.703 E9.80383
G1 X94.686 Y94.647 E9.93858
G1 X94.896 Y95.701 E10.06620
G1 X94.908 Y95.760 F7800.000
G1 E8.06620 F2400.00000
G92 E0
G1 X101.828 Y113.921 F7800.000
G1 E2.00000 F2400.00000
G1 F1800
G1 X97.908 Y112.072 E2.51483
G1 X95.424 Y110.518 E2.86271
G1 X93.089 Y108.641 E3.21859
G1 X90.964 Y106.464 E3.57991
G1 X89.166 Y104.122 E3.93053
G1 X87.662 Y101.594 E4.27982
G1 X86.414 Y98.783 E4.64512
G1 X85.543 Y95.940 E4.99829
G1 X85.021 Y93.068 E5.34493
G1 X84.828 Y89.944 E5.71674
G1 X84.828 Y86.828 E6.08673
G1 X135.172 Y86.828 E12.06577
G1 X135.172 Y89.946 E12.43598
G1 X134.990 Y92.991 E12.79831
G1 X134.451 Y95.967 E13.15756
G1 X133.578 Y98.806 E13.51024
G1 X132.396 Y101.480 E13.85752
G1 X130.833 Y104.121 E14.22195
G1 X128.951 Y106.559 E14.58772
G1 X126.912 Y108.640 E14.93375
G1 X124.519 Y110.557 E15.29793
G1 X122.035 Y112.105 E15.64549
G1 X118.172 Y113.918 E16.15238
G1 X118.172 Y119.049 E16.76175
G1 X117.846 Y119.130 E16.80162
G1 X116.865 Y117.261 E17.05223
G1 X115.532 Y115.756 E17.29106
G1 X113.877 Y114.614 E17.52989
G1 X111.996 Y113.901 E17.76873
G1 X110.000 Y113.658 E18.00756
G1 X108.004 Y113.901 E18.24640
G1 X106.123 Y114.614 E18.48523
G1 X104.468 Y115.756 E18.72406
G1 X103.135 Y117.261 E18.96290
G1 X102.154 Y119.130 E19.21350
G1 X101.828 Y119.049 E19.25337
G1 X101.828 Y113.981 E19.85535
G1 X101.114 Y114.373 F7800.000
G1 F1800
G1 X97.565 Y112.699 E20.32143
G1 X95.010 Y111.101 E20.67935
G1 X92.608 Y109.170 E21.04536
G1 X90.423 Y106.932 E21.41682
G1 X88.574 Y104.523 E21.77749
G1 X87.027 Y101.923 E22.13682
G1 X85.744 Y99.034 E22.51229
G1 X84.847 Y96.109 E22.87558
G1 X84.311 Y93.154 E23.23224
G1 X84.114 Y89.966 E23.61166
G1 X84.114 Y86.114 E24.06909
G1 X135.886 Y86.114 E30.21776
G1 X135.886 Y89.967 E30.67532
G1 X135.700 Y93.076 E31.04526
G1 X135.146 Y96.137 E31.41465
G1 X134.248 Y99.056 E31.77738
G1 X133.032 Y101.808 E32.13468
G1 X131.426 Y104.523 E32.50936
G1 X129.491 Y107.029 E32.88536
G1 X127.393 Y109.170 E33.24139
G1 X125.077 Y111.034 E33.59441
G1 X124.918 Y111.149 E33.61777
G1 X122.377 Y112.733 E33.97340
G1 X118.886 Y114.372 E34.43143
G1 X118.886 Y129.927 E36.27878
G1 X118.743 Y131.005 E36.40798
G1 X118.357 Y131.938 E36.52790
G1 X117.743 Y132.738 E36.64767
G1 X116.936 Y133.358 E36.76854
G1 X116.003 Y133.744 E36.88841
G1 X114.927 Y133.886 E37.01734
G1 X105.069 Y133.885 E38.18808
G1 X103.997 Y133.744 E38.31658
G1 X103.064 Y133.358 E38.43650
G1 X102.262 Y132.743 E38.55654
G1 X101.642 Y131.936 E38.67739
G1 X101.256 Y131.003 E38.79726
G1 X101.114 Y129.927 E38.92619
G1 X101.114 Y114.433 E40.76628
G1 X100.400 Y114.826 F7800.000
G1 F1800
G1 X97.222 Y113.327 E41.18360
G1 X94.595 Y111.684 E41.55156
G1 X92.127 Y109.700 E41.92770
G1 X89.883 Y107.401 E42.30931
G1 X87.982 Y104.924 E42.68001
G1 X86.391 Y102.252 E43.04940
G1 X85.074 Y99.284 E43.43504
G1 X84.152 Y96.278 E43.80844
G1 X83.601 Y93.240 E44.17511
G1 X83.400 Y89.988 E44.56216
G1 X83.400 Y85.400 E45.10701
G1 X136.600 Y85.400 E51.42532
G1 X136.600 Y89.988 E51.97023
G1 X136.411 Y93.161 E52.34777
G1 X135.841 Y96.306 E52.72730
G1 X134.918 Y99.306 E53.10009
G1 X133.668 Y102.135 E53.46741
G1 X132.018 Y104.924 E53.85233
G1 X130.030 Y107.498 E54.23857
G1 X127.873 Y109.700 E54.60459
G1 X125.318 Y111.742 E54.99312
G1 X122.719 Y113.362 E55.35682
G1 X119.600 Y114.826 E55.76600
G1 X119.600 Y129.974 E57.56504
G1 X119.439 Y131.192 E57.71098
G1 X118.981 Y132.298 E57.85321
G1 X118.253 Y133.247 E57.99529
G1 X117.296 Y133.982 E58.13851
G1 X116.190 Y134.440 E58.28072
G1 X114.974 Y134.600 E58.42638
G1 X105.023 Y134.600 E59.60823
G1 X103.810 Y134.440 E59.75345
G1 X102.704 Y133.982 E59.89569
G1 X101.752 Y133.252 E60.03805
G1 X101.018 Y132.296 E60.18126
G1 X100.560 Y131.190 E60.32347
G1 X100.400 Y129.974 E60.46913
G1 X100.400 Y114.886 E62.26100
G1 X100.515 Y114.443 F7800.000
G1 E60.26100 F2400.00000
G92 E0
G1 X102.640 Y117.345 F7800.000
G1 E2.00000 F2400.00000
G1 F1800
G1 X102.337 Y117.784 E2.00483
G1 F1800
G1 X102.185 Y118.004 E2.01116
G1 X101.962 Y119.450 F7800.000
G1 F1800
G1 X101.901 Y119.955 E2.07792
G1 F1800
G1 X101.839 Y120.460 E2.13730
G1 F1800
G1 X101.778 Y120.964 E2.18932
G1 F1800
G1 X101.774 Y122.962 E2.36473
G1 X101.809 Y123.288 E2.39351
G1 F1800
G1 X101.870 Y123.793 E2.44552
G1 F1800
G1 X101.931 Y124.297 E2.50491
G1 F1800
G1 X101.962 Y124.550 E2.53828
G1 X102.185 Y125.996 F7800.000
G1 F1800
G1 X102.337 Y126.216 E2.54462
G1 F1800
G1 X102.640 Y126.655 E2.54945
G1 X102.821 Y127.312 F7800.000
G1 F1800
G1 X102.265 Y127.868 E2.64351
G1 X102.265 Y128.885 E2.76521
G1 X103.506 Y127.643 E2.97524
G1 X103.984 Y128.183 E3.06145
G1 X102.265 Y129.902 E3.35233
G1 X102.265 Y130.111 E3.37732
G1 X102.359 Y130.825 E3.46351
G1 X104.512 Y128.672 E3.82779
G1 X105.114 Y129.088 E3.91528
G1 X102.654 Y131.548 E4.33147
G1 X103.002 Y132.002 E4.39992
G1 X103.124 Y132.095 E4.41827
G1 X105.716 Y129.503 E4.85674
G1 X106.067 Y129.745 E4.90778
G1 X106.374 Y129.862 E4.94709
G1 X103.748 Y132.488 E5.39136
G1 X104.092 Y132.630 E5.43587
G1 X104.561 Y132.692 E5.49251
G1 X107.112 Y130.142 E5.92399
G1 X107.849 Y130.421 E6.01836
G1 X105.536 Y132.735 E6.40975
G1 X106.553 Y132.735 E6.53144
G1 X108.697 Y130.591 E6.89409
G1 X109.604 Y130.702 E7.00341
G1 X107.570 Y132.735 E7.34743
G1 X108.588 Y132.735 E7.46912
G1 X110.575 Y130.747 E7.80542
G1 X111.733 Y130.607 E7.94496
G1 X109.605 Y132.735 E8.30505
G1 X110.622 Y132.735 E8.42674
G1 X113.076 Y130.281 E8.84190
G1 X114.489 Y129.745 E9.02262
G1 X114.942 Y129.432 E9.08854
G1 X111.639 Y132.735 E9.64730
G1 X112.657 Y132.735 E9.76899
G1 X117.735 Y127.657 E10.62818
G1 X117.735 Y128.674 E10.74988
G1 X113.674 Y132.735 E11.43696
G1 X114.556 Y132.735 E11.54244
G1 X114.712 Y132.715 E11.56128
G1 X117.715 Y129.712 E12.06928
G1 X117.630 Y130.354 E12.14680
G1 X117.387 Y130.940 E12.22264
G1 X117.002 Y131.441 E12.29823
G1 X116.446 Y131.998 E12.39239
G1 E10.39239 F2400.00000
G92 E0
G1 X117.360 Y126.655 F7800.000
G1 E2.00000 F2400.00000
G1 F1800
G1 X117.512 Y126.435 E2.00241
G1 F1800
G1 X117.815 Y125.996 E2.01509
G1 X118.038 Y124.550 F7800.000
G1 F1800
G1 X118.099 Y124.045 E2.08188
G1 F1800
G1 X118.161 Y123.540 E2.14128
G1 F1800
G1 X118.222 Y123.035 E2.19331
G1 F1800
G1 X118.226 Y121.039 E2.36854
G1 X118.191 Y120.713 E2.39732
G1 F1800
G1 X118.130 Y120.208 E2.44935
G1 F1800
G1 X118.069 Y119.703 E2.50876
G1 F1800
G1 X118.038 Y119.450 E2.54215
G1 X117.815 Y118.004 F7800.000
G1 F1800
G1 X117.512 Y117.565 E2.55483
G1 F1800
G1 X117.360 Y117.345 E2.55724
G1 X116.807 Y116.710 F7800.000
G1 F1800
G1 X117.735 Y115.781 E2.71538
G1 X117.735 Y114.757 E2.83875
G1 X116.326 Y116.167 E3.07886
G1 X115.845 Y115.624 E3.16625
G1 E1.16625 F2400.00000
G92 E0
G1 X126.153 Y108.388 F7800.000
G1 E2.00000 F2400.00000
G1 F1800
G1 X128.689 Y105.811 E2.43540
G1 X130.519 Y103.442 E2.79597
G1 X131.162 Y102.355 E2.94813
G1 X122.338 Y111.179 E4.45129
G1 X121.415 Y111.754 E4.58216
G1 X120.140 Y112.353 E4.75192
G1 X132.370 Y100.122 E6.83521
G1 X133.181 Y98.287 E7.07691
G1 X118.209 Y113.259 E9.62728
G1 X117.180 Y113.743 E9.76419
G1 X117.180 Y114.288 E9.82993
G1 X115.845 Y115.624 E10.05737
G1 X115.731 Y115.495 E10.07802
G1 X115.268 Y115.176 E10.14575
G1 X130.320 Y100.124 E12.70967
G1 X130.226 Y100.186 E12.72323
G1 X128.987 Y100.433 E12.87549
